X: 9
T:Rodney, Headington 2
M:4/4
L:1/8
R:Hornpipe
A:Headington
P:A(A2B2)4A
K:G
Q:364
P:A
G2AB c2(3cBA|GABc d4  |dedc B2B2|AGAB G4  ||
P:B
dfge f2d2   |dfge f2d2|dfge edcB|cedc B2A2||
